!!!OTL: WENN IM THAU DER ABENDKUEHLE
!!!ARE: Europa, Mitteleuropa, Deutschland
!!!SCT: F0987
!!!YEM: Copyright 1995, estate of Helmut Schaffrath.
**kern
*ICvox
*Ivox
!! Mixed meters:  4/4; 3/4
*M4/4
*k[b-e-a-]
*E-:
{4b-
4b-
=1
8.b-
16ee-
4g
8.e-
16g
8.f
16b-
=2
4a-
4g}
{8b-
8ee-
8gg
8ee-
=3
8b-
8g
8e-
8B-
4a-
4g
=4
2f}
{4f
4f
=5
8f
8g
8an
8b-
8cc
8dd
8ee-
8ff
=6
8ee-
8dd
4dd}
{8ff
8dd
8b-
8f
=7
8g
8an
8b-
8cc
4f
8g
8a-
=8
4b-
2.r}
=9
*M3/4
{4b-
4cc
4dd
=10
8.ee-
16gg
4.b-
8r}
=11
{8ff
8dd
4.b-
8a-
=12
2.g}
=13
{4cc
4cc
4cc
=14
4b-
4g
4e-}
=15
{4.B-
8c
4d
=16
2.e-}
==
!!!AGN: Natur - Lied
!!!ONB: ESAC (Essen Associative Code) Database: FINK
!!!AMT: irregular
!!!AIN: vox
!!!EED: Helmut Schaffrath
!!!EEV: 1.0
*-
